src/16/panel/gpm-brightness-lcd-invalid.svg

<svg xmlns="http://www.w3.org/2000/svg" width="16" height="16" version="1.1">
 <defs>
  <style id="current-color-scheme" type="text/css">
   .ColorScheme-Text { color:#dfdfdf; } .ColorScheme-Highlight { color:#4285f4; }
  </style>
 </defs>
 <path style="opacity:0.3;fill:currentColor" class="ColorScheme-Text" d="M 8.00015,0.721 5.81065,3.0003 H 3.0001499 V 5.8107999 L 0.72085,8.0002999 3.0001499,10.221 V 13 H 5.81065 l 2.1895,2.279 2.221,-2.279 h 2.779 v -2.779 l 2.279,-2.2207001 -2.279,-2 V 3.0003 h -2.779 z m 0,3.2793 c 2.21,0 4,1.7899999 4,3.9999999 C 12.00015,10.21 10.21015,12 8.00015,12 5.7901499,12 4.0001499,10.21 4.0001499,8.0002999 c 0,-2.21 1.79,-3.9999999 4.0000001,-3.9999999 z"/>
 <path style="fill:currentColor" class="ColorScheme-Highlight" d="m 7,4.9999999 v 4 h 2 v -4 z m 0,5 V 11 H 9 V 9.9999999 Z"/>
</svg>

<svg xmlns="http://www.w3.org/2000/svg" width="16" height="16"><path d="M8 .721l-2.19 2.28H3v2.81L.72 8 3 10.22V13h2.81L8 15.279 10.221 13h2.78v-2.779l2.278-2.22L13 6V3h-2.779zm0 3.28c2.21 0 4 1.79 4 4C12 10.21 10.21 12 8 12s-4-1.79-4-4 1.79-4 4-4z" opacity=".3" fill="currentColor" color="#bebebe"/><path d="M7 5v4h2V5zm0 5v1h2v-1z" fill="currentColor" color="#5294e2"/></svg>
